Assets/ico-repeat-list.svg

<svg xmlns="http://www.w3.org/2000/svg" fill="none" viewBox="0 0 24 24"><path stroke="#fff" stroke-linecap="round" stroke-linejoin="round" stroke-width="2.5" d="m19 5 2 2m0 0-2 2m2-2H7M5 19l-2-2m0 0 2-2m-2 2h14"/><path stroke="#fff" stroke-linecap="round" stroke-width="2.5" d="M3 11a4 4 0 0 1 4-4M21 13a4 4 0 0 1-4 4"/></svg>

<svg viewBox="0 0 24 24" fill="none" xmlns="http://www.w3.org/2000/svg">
<path d="M19 5L21 7M21 7L19 9M21 7H7" stroke="white" stroke-width="2.5" stroke-linecap="round" stroke-linejoin="round"/>
<path d="M5 19L3 17M3 17L5 15M3 17L17 17" stroke="white" stroke-width="2.5" stroke-linecap="round" stroke-linejoin="round"/>
<path d="M3 11C3 8.79086 4.79086 7 7 7" stroke="white" stroke-width="2.5" stroke-linecap="round"/>
<path d="M21 13C21 15.2091 19.2091 17 17 17" stroke="white" stroke-width="2.5" stroke-linecap="round"/>
</svg>
